X:169
T:Reel 169
M:4/4
K:Dmaj
L:1/8
D3F AFF2|dFcF AGFE|D3F A2FD| (3EFG FE DFB,C|D2FA A2AF|dFFG A2de|fdec dBAG| (3FGA ED CA,A,2|d2dc d2dd|cded fded|cAAA fAeA|fdef dcAd|cded d2Bd|cded cAAd|cABc c2Ac|BABc dfed|cAAG A2BA|cAAc eAAd|cAA2 cAed|cABc d2ed|cAA2 dfed|cABc d2fd|afge fded|cABG FDE2|
